img/svgicons/settings.svg

<svg width="22" height="22" viewBox="0 0 22 22" fill="none" xmlns="http://www.w3.org/2000/svg">
<g clip-path="url(#clip0_198_0)">
<path d="M7.00781 8.91803C5.83651 8.91803 4.83788 9.63766 4.46709 10.6393H0V12.3607H4.46709C4.83788 13.3623 5.83651 14.082 7.00781 14.082C8.17912 14.082 9.17775 13.3623 9.54853 12.3607H23V10.6393H9.54853C9.17775 9.63766 8.17912 8.91803 7.00781 8.91803ZM7.00781 12.3607C6.51244 12.3607 6.10938 11.9745 6.10938 11.5C6.10938 11.0255 6.51244 10.6393 7.00781 10.6393C7.50318 10.6393 7.90625 11.0255 7.90625 11.5C7.90625 11.9745 7.50318 12.3607 7.00781 12.3607ZM19.072 2.72131C18.7012 1.71962 17.7026 1 16.5312 1C15.3599 1 14.3613 1.71962 13.9905 2.72131H0V4.44262H13.9905C14.3613 5.44431 15.3599 6.16393 16.5312 6.16393C17.7026 6.16393 18.7012 5.44431 19.072 4.44262H23V2.72131H19.072ZM16.5312 4.44262C16.0359 4.44262 15.6328 4.0565 15.6328 3.58197C15.6328 3.10743 16.0359 2.72131 16.5312 2.72131C17.0266 2.72131 17.4297 3.10743 17.4297 3.58197C17.4297 4.0565 17.0266 4.44262 16.5312 4.44262ZM14.8242 16.8361C13.6529 16.8361 12.6543 17.5557 12.2835 18.5574H0V20.2787H12.2835C12.6543 21.2804 13.6529 22 14.8242 22C15.9955 22 16.9942 21.2804 17.3649 20.2787H23V18.5574H17.3649C16.9942 17.5557 15.9955 16.8361 14.8242 16.8361ZM14.8242 20.2787C14.3288 20.2787 13.9258 19.8926 13.9258 19.418C13.9258 18.9435 14.3288 18.5574 14.8242 18.5574C15.3196 18.5574 15.7227 18.9435 15.7227 19.418C15.7227 19.8926 15.3196 20.2787 14.8242 20.2787Z" fill="#337D5A"/>
</g>
<defs>
<clipPath id="clip0_198_0">
<rect width="22" height="22" fill="white"/>
</clipPath>
</defs>
</svg>

<svg width="22" height="22" fill="none" xmlns="http://www.w3.org/2000/svg"><g clip-path="url(#a)"><path d="M7.008 8.918c-1.171 0-2.17.72-2.54 1.721H0v1.722h4.467c.37 1.001 1.37 1.721 2.54 1.721 1.172 0 2.17-.72 2.542-1.721H23v-1.722H9.549c-.371-1.001-1.37-1.721-2.541-1.721Zm0 3.443c-.496 0-.899-.386-.899-.861s.403-.86.899-.86c.495 0 .898.385.898.86s-.403.86-.898.86Zm12.064-9.64C18.702 1.72 17.702 1 16.532 1c-1.172 0-2.17.72-2.541 1.721H0v1.722h13.99c.371 1.001 1.37 1.72 2.541 1.72 1.172 0 2.17-.719 2.541-1.72H23V2.72h-3.928Zm-2.54 1.722c-.496 0-.9-.386-.9-.861s.404-.86.9-.86c.495 0 .898.385.898.86 0 .474-.403.86-.899.86Zm-1.708 12.393c-1.171 0-2.17.72-2.54 1.721H0v1.722h12.284c.37 1.001 1.369 1.721 2.54 1.721s2.17-.72 2.54-1.721H23v-1.722h-5.635c-.37-1.001-1.37-1.72-2.54-1.72Zm0 3.443c-.495 0-.898-.386-.898-.861 0-.474.403-.86.898-.86.496 0 .899.386.899.86 0 .475-.403.86-.899.86Z" fill="#337D5A"/></g><defs><clipPath id="a"><path fill="#fff" d="M0 0h22v22H0z"/></clipPath></defs></svg>
